X:50
T: Wiedersehen an der Bahre
N: Q1056F
O: Mitteleuropa, Deutschland / Frankreich, Lothringen
N: Melodievergleich mit Q0056 , anderes Lied.
R: historisches Lied, Napoleon
M: 3/4
L: 1/16
K: G
D2E2D2 | B6G2A2G2 | F4z2
D2E2D2 | c4B2A2A4 | G4z2
G2F2A2 | d4c2A2G2B2 | B2cBA2
G2F2A2 | d4c2A2A4 | G4z2

